!!!!SEGMENT: Rue/Rue1006d-Missa_Conceptio_tua-Sanctus.krn
!!!COM:	la Rue, Pierre de
!!!CDT:	~1452///-1518/11/20
!!!OPR:	Missa Conceptio tua
!!!ONM:	4
!!!OTL:	Sanctus
!!!AGN:	Mass; Sanctus
!!!SCT:	Rue1006d
!!!SCA:	Rue1006d
!!!jrpid: Rue1006d
!!!voices:	5
!!!COM:	La Rue
!!!OTL:	Rue1006d-Missa_Conceptio_tua-Sanctus
**kern	**kern	**kern	**kern	**kern
*part5	*part4	*part3	*part2	*part1
*staff5	*staff4	*staff3	*staff2	*staff1
*Ivox	*Ivox	*Ivox	*Ivox	*Ivox
*I"Bassus	*I"Tenor 2	*I"Tenor 1	*I"Contra	*I"Discantus
*I'B	*I'T2	*I'T1	*I'C	*I'D
*>[A,B,C,D,E]	*>[A,B,C,D,E]	*>[A,B,C,D,E]	*>[A,B,C,D,E]	*>[A,B,C,D,E]
*>A	*>A	*>A	*>A	*>A
*clefF4	*clefF4	*clefGv2	*clefGv2	*clefGv2
*k[]	*k[]	*k[]	*k[]	*k[]
*a:	*a:	*a:	*a:	*a:
*M3/1	*M3/1	*M3/1	*M3/1	*M3/1
*met(O)	*met(O)	*met(O)	*met(O)	*met(O)
!!section: Sanctus
!!!OMD: Sanctus
=1	=1	=1	=1	=1
0.r	0.r	0.r	0D	0.r
.	.	.	1D	.
=2	=2	=2	=2	=2
0.r	0.r	0.r	1C	1r
.	.	.	0F	0d
=3	=3	=3	=3	=3
0.r	0.r	0.r	1G	1d
.	.	.	1A	1c
.	.	.	2A	[1f
.	.	.	[2B-Xi	.
=4	=4	=4	=4	=4
0.r	0.r	0.r	4B-]	1f]
.	.	.	4A	.
.	.	.	4G	.
.	.	.	4F	.
.	.	.	2.E	1g
.	.	.	4D	.
.	.	.	1F	[1a
=5	=5	=5	=5	=5
0.r	0.r	0.r	1r	2a]
.	.	.	.	2g
.	.	.	1.A	2f
.	.	.	.	4e
.	.	.	.	4d
.	.	.	.	1e
.	.	.	2G	.
=6	=6	=6	=6	=6
0.r	0.r	0.r	2F	1d
.	.	.	4E	.
.	.	.	4D	.
.	.	.	1E	2r
.	.	.	.	2g
.	.	.	1D	2f
.	.	.	.	4e
.	.	.	.	4d
=7	=7	=7	=7	=7
0.r	0.r	0.r	2r	4e
.	.	.	.	4d
.	.	.	2d	1a
.	.	.	2c	.
.	.	.	4B	4g
.	.	.	4A	4f
.	.	.	4B	4g
.	.	.	4A	4f
.	.	.	[2c	4e
.	.	.	.	4d
=8	=8	=8	=8	=8
0.r	0.r	0.r	2c]	1c
.	.	.	4B	.
.	.	.	4A	.
.	.	.	4B	2r
.	.	.	4A	.
.	.	.	4G	2.e
.	.	.	4F	.
.	.	.	[1E	.
.	.	.	.	4f
.	.	.	.	4g
.	.	.	.	4f
=9	=9	=9	=9	=9
0.r	0.r	0.r	1E]	4e
.	.	.	.	4d
.	.	.	.	4c
.	.	.	.	4B
.	.	.	2r	2A
.	.	.	2.A	2e
.	.	.	.	2f
.	.	.	4B	.
.	.	.	4c	4e
.	.	.	4B	4d
=10	=10	=10	=10	=10
0.r	0.r	0.r	4A	2c
.	.	.	4G	.
.	.	.	4F	2.f
.	.	.	4E	.
.	.	.	2D	.
.	.	.	.	4e
.	.	.	2F	1d
.	.	.	1E	.
.	.	.	.	2c#Xi
=11	=11	=11	=11	=11
2r	0A	0.D	0D	0.d
2.D	.	.	.	.
4E	.	.	.	.
4F	.	.	.	.
4E	.	.	.	.
4D	1F	.	1r	.
4C	.	.	.	.
4BB	.	.	.	.
4AA	.	.	.	.
=12	=12	=12	=12	=12
2GG	2G	0D	0.r	0.r
2FF	2A	.	.	.
2GG	4G	.	.	.
.	4F	.	.	.
2BB-Xi	4E	.	.	.
.	4D	.	.	.
1AA	1E	1C	.	.
=13	=13	=13	=13	=13
0.DD	0.D	0F	1.A	2r
.	.	.	.	2.d
.	.	.	.	4e
.	.	.	2A	4f
.	.	.	.	4e
.	.	1F	2A	4d
.	.	.	.	4c
.	.	.	[2B	4B
.	.	.	.	4A
=14	=14	=14	=14	=14
0.r	1r	1G	2B]	2G
.	.	.	2G	2B
.	2r	2F	2A	2A
.	2.E	2G	2B	1G
.	.	2.E	2.G	.
.	4F	.	.	.
.	4G	.	.	[2g
.	4F	4F	4A	.
=15	=15	=15	=15	=15
0.r	4E	2G	2B	4g]
.	4D	.	.	4f
.	4C	1A	1c	4e
.	4BB	.	.	4d
.	2AA	.	.	2c
.	2C	4G	2A	2e
.	.	4F	.	.
.	1BB	1G	1B	1d
=16	=16	=16	=16	=16
0.r	1AA	0A	2r	1c
.	.	.	1c	.
.	2.C	.	.	2r
.	.	.	4B	2.e
.	4D	.	4A	.
.	4E	1r	2.G	.
.	4C	.	.	4f
.	4E	.	.	4g
.	4F	.	4A	4f
=17	=17	=17	=17	=17
0.r	2G	0.r	2B	4e
.	.	.	.	4d
.	2A	.	2.c	4c
.	.	.	.	4B
.	1AA	.	.	2A
.	.	.	4B	.
.	.	.	1A	2c
.	1E	.	.	1B
.	.	.	2G#Xi	.
=18	=18	=18	=18	=18
0AA	2r	0A	1A	1A
.	1C	.	.	.
.	.	.	1E	1e
.	4BB	.	.	.
.	4AA	.	.	.
1AA	1C	1A	1r	1f
=19	=19	=19	=19	=19
0EE	1.BB	[0.G	1E	1g
.	.	.	2E	2g
.	2BB	.	2.E	1g
1EE	1BB	.	.	.
.	.	.	4F	.
.	.	.	4G	4f
.	.	.	4A	4e
=20	=20	=20	=20	=20
2.GG	2BB	0G]	2B	2d
.	2E	.	1G	2e
4AA	.	.	.	.
2BB	2D	.	.	2B
2C	2C	.	2.c	1e
1GG	1D	1G	.	.
.	.	.	4B	.
.	.	.	2B	2d
=21	=21	=21	=21	=21
2.C	1.C	0E	0c	0e
4BB	.	.	.	.
2AA	.	.	.	.
2GG	2BB	.	.	.
1FF	1AA	1F	1r	1a
=22	=22	=22	=22	=22
0EE	0BB	1G	2r	1g
.	.	.	2G	.
.	.	2r	1G	2e
.	.	2.E	.	2.g
1EE	[1E	.	1G	.
.	.	4F	.	4f
.	.	4G	.	4e
.	.	4F	.	4d
=23	=23	=23	=23	=23
0AA	1E]	4E	0A	4c
.	.	4D	.	4B
.	.	4C	.	2.c
.	.	4BB	.	.
.	0E	2AA	.	.
.	.	.	.	4B
.	.	2C	.	2.A
1EE	.	1BB	1B	.
.	.	.	.	4G#Xi
.	.	.	.	2G#Xi
=24	=24	=24	=24	=24
1r	2C	0.AA	1c	1A
.	2F	.	.	.
2r	2E	.	2A	2r
2.AA	2.C	.	2.c	1e
4BB	4D	.	4B	.
4C	4E	.	4A	2e
4BB	4D	.	4G	.
=25	=25	=25	=25	=25
4AA	4C	0.r	4F	2f
4GG	4BB	.	4E	.
4FF	1AA	.	2.F	1a
4EE	.	.	.	.
2DD	.	.	.	.
.	.	.	4E	.
2FF	1AA	.	1D	2f
1EE	.	.	.	1g
.	2GG	.	2C#Xi	.
=26	=26	=26	=26	=26
1DD	2AA	1r	2D	1f
.	2A	.	2F	.
2AA	2.A	2r	2E	2e
2.D	.	2.A	2D	2.f
.	4G	.	.	.
.	2F	.	[1A	.
4C	.	4B	.	4e
4AA	[2E	4c	.	4c
4BB	.	4B	.	4d
=27	=27	=27	=27	=27
2C	2E]	4A	0.A_	2e
.	.	4G	.	.
1D	4D	4F	.	2.f
.	4E	4E	.	.
.	4F	2D	.	.
.	4G	.	.	4e
2DD	2.A	2F	.	1d
1AA	.	1E	.	.
.	4G	.	.	.
.	2E	.	.	2c#Xi
=28	=28	=28	=28	=28
0.DDl	2F	0.Dl	0A]	0.dl
.	1D	.	.	.
.	4C	.	.	.
.	4BB	.	.	.
.	1AAl	.	1Al	.
!!LO:LB:i:g=z
=29||	=29||	=29||	=29||	=29||
*>B	*>B	*>B	*>B	*>B
*clefF4	*clefF4	*clefGv2	*clefGv2	*clefGv2
*k[]	*k[]	*k[]	*k[]	*k[]
*M2/1	*M2/1	*M2/1	*M2/1	*M2/1
*met(C|)	*met(C|)	*met(C|)	*met(C|)	*met(C|)
!!section: Pleni sunt celi
!!!OMD: Pleni sunt celi
1D	0r	0r	[0A	0r
2C	.	.	.	.
[2D	.	.	.	.
=30	=30	=30	=30	=30
4D]	0r	0r	1A]	0r
4C	.	.	.	.
4BB	.	.	.	.
4AA	.	.	.	.
1BB	.	.	1G	.
=31	=31	=31	=31	=31
0AA	0r	0r	1.A	0r
.	.	.	4G	.
.	.	.	4F	.
=32	=32	=32	=32	=32
2r	0r	0r	2G	0r
2AA	.	.	2A	.
1BB	.	.	4G	.
.	.	.	4F	.
.	.	.	4E	.
.	.	.	4D	.
=33	=33	=33	=33	=33
1C	0r	0r	1E	0r
[1D	.	.	1D	.
=34	=34	=34	=34	=34
2D]	0r	0r	2r	0r
4C	.	.	2D	.
4BB	.	.	.	.
2C	.	.	[1E	.
2AA	.	.	.	.
=35	=35	=35	=35	=35
4C	0r	0r	1E]	0r
4BB	.	.	.	.
4AA	.	.	.	.
4GG	.	.	.	.
1AA	.	.	1F	.
=36	=36	=36	=36	=36
1GG	0r	0r	1.G	0r
2r	.	.	.	.
2GG	.	.	4F	.
.	.	.	4E	.
=37	=37	=37	=37	=37
0AA	0r	0r	2F	0r
.	.	.	4E	.
.	.	.	4D	.
.	.	.	2C	.
.	.	.	2E	.
=38	=38	=38	=38	=38
1BB	0r	0r	1D	0r
[1C	.	.	2.C	.
.	.	.	4D	.
=39	=39	=39	=39	=39
2C]	0r	0r	4E	0r
.	.	.	4F	.
4BB-Xi	.	.	1G	.
4AA	.	.	.	.
2BB-X	.	.	.	.
4AA	.	.	[2A	.
4GG	.	.	.	.
=40	=40	=40	=40	=40
2FF	0r	0r	4A]	0r
.	.	.	4G	.
2AA	.	.	1F	.
1GG	.	.	.	.
.	.	.	2E	.
=41	=41	=41	=41	=41
2r	0r	0r	1F	0r
2.FF	.	.	.	.
.	.	.	1A	.
4GG	.	.	.	.
4AA	.	.	.	.
4BB-Xi	.	.	.	.
=42	=42	=42	=42	=42
2C	0r	0r	4G	0r
.	.	.	4F	.
1D	.	.	4E	.
.	.	.	4D	.
.	.	.	1E	.
2C#Xi	.	.	.	.
=43	=43	=43	=43	=43
2D	0r	0r	1D	0r
2D	.	.	.	.
2.F	.	.	2r	.
.	.	.	2A	.
4E	.	.	.	.
=44	=44	=44	=44	=44
4D	0r	0r	2A	0r
4C	.	.	.	.
2E	.	.	4G	.
.	.	.	4F	.
2C	.	.	4E	.
.	.	.	4D	.
4D	.	.	[2F	.
4C	.	.	.	.
=45	=45	=45	=45	=45
4BB	0r	0r	2F]	0r
4AA	.	.	.	.
2C	.	.	4E	.
.	.	.	4D	.
2AA	.	.	4C	.
.	.	.	4BB-Xi	.
4BB-Xi	.	.	[2D	.
4AA	.	.	.	.
=46	=46	=46	=46	=46
4GG	0r	0r	2D]	0r
4FF	.	.	.	.
1AA	.	.	2C	.
.	.	.	1BB-Xi	.
2GG	.	.	.	.
=47	=47	=47	=47	=47
1AA	0r	0r	2r	[0e
.	.	.	1A	.
1EE	.	.	.	.
.	.	.	2G	.
=48	=48	=48	=48	=48
0r	0r	0r	4A	1e]
.	.	.	4G	.
.	.	.	4F	.
.	.	.	4E	.
.	.	.	1F	1d
=49	=49	=49	=49	=49
0r	0r	0r	0E	1.e
.	.	.	.	4d
.	.	.	.	4c
=50	=50	=50	=50	=50
0r	0r	0r	2r	2d
.	.	.	2E	2e
.	.	.	1F	4d
.	.	.	.	4c
.	.	.	.	4B
.	.	.	.	4A
=51	=51	=51	=51	=51
1r	0r	0r	1G	1B
1AA	.	.	1A	2r
.	.	.	.	2A
=52	=52	=52	=52	=52
1GG	0r	0r	2D	1B
.	.	.	1E	.
1AA	.	.	.	1c
.	.	.	[2F	.
=53	=53	=53	=53	=53
1BB	0r	0r	2F]	1d
.	.	.	2.G	.
1GG	.	.	.	2r
.	.	.	4F	.
.	.	.	4E	2d
.	.	.	4D	.
=54	=54	=54	=54	=54
2r	0r	0r	2C	1e
2C	.	.	1A	.
1D	.	.	.	1f
.	.	.	[2B	.
=55	=55	=55	=55	=55
1E	0r	0r	2B]	2.g
.	.	.	2.c	.
.	.	.	.	4f
1C	.	.	.	4e
.	.	.	4B	4d
.	.	.	4A	[2e
.	.	.	4G	.
=56	=56	=56	=56	=56
1r	0r	0r	2A	2e]
.	.	.	2D	2.d
1AA	.	.	1E	.
.	.	.	.	4c#Xi
.	.	.	.	2c#Xi
=57	=57	=57	=57	=57
2BB	0r	0r	[0D	0d
2.GG	.	.	.	.
4AA	.	.	.	.
4BB	.	.	.	.
4C	.	.	.	.
=58	=58	=58	=58	=58
2D	0r	0r	0D]	1r
1GG	.	.	.	.
.	.	.	.	1A
2FF	.	.	.	.
=59	=59	=59	=59	=59
2GG	0r	0r	0r	2B
2C	.	.	.	2.G
2BB	.	.	.	.
.	.	.	.	4A
[2GG	.	.	.	4B
.	.	.	.	4c
=60	=60	=60	=60	=60
2GG]	0r	0r	0r	2d
2.D	.	.	.	2B
.	.	.	.	4A
8CL	.	.	.	4B
8BBJ	.	.	.	.
4AA	.	.	.	4c
4BB	.	.	.	4B
=61	=61	=61	=61	=61
4C	0r	0r	1r	4A
4BB	.	.	.	4G
4AA	.	.	.	1G
4GG	.	.	.	.
1AA	.	.	1A	.
.	.	.	.	2F#Xi
=62	=62	=62	=62	=62
0GG	0r	0r	1.B	2G
.	.	.	.	1d
.	.	.	4A	2B
.	.	.	4G	.
=63	=63	=63	=63	=63
0r	0r	0r	2A	4c
.	.	.	.	4B
.	.	.	1G	4A
.	.	.	.	4G
.	.	.	.	1A
.	.	.	2F#Xi	.
=64	=64	=64	=64	=64
0r	0r	0r	2G	4G
.	.	.	.	4A
.	.	.	2d	4B
.	.	.	.	4c
.	.	.	2B	2d
.	.	.	[2c	[2e
=65	=65	=65	=65	=65
1r	0r	0r	4c]	4e]
.	.	.	4B	4d
.	.	.	4A	1g
.	.	.	4G	.
1D	.	.	1A	.
.	.	.	.	2f#Xi
=66	=66	=66	=66	=66
2E	0r	0r	[0G	2g
4D	.	.	.	4f
4C	.	.	.	4e
2BB	.	.	.	2d
[2C	.	.	.	[2e
=67	=67	=67	=67	=67
2C]	0r	0r	0G]	2e]
2BB	.	.	.	2d
4C	.	.	.	2e
4BB	.	.	.	.
4C	.	.	.	4d
4D	.	.	.	4c
=68	=68	=68	=68	=68
2E	0r	0r	2r	1B
4D	.	.	2E	.
4C	.	.	.	.
1BB	.	.	4F	1d
.	.	.	4E	.
.	.	.	4F	.
.	.	.	4G	.
=69	=69	=69	=69	=69
[0AA	0r	0r	2A	1c
.	.	.	4G	.
.	.	.	4F	.
.	.	.	2E	1c
.	.	.	2F	.
=70	=70	=70	=70	=70
0AA]	0r	0r	2E	2.c
.	.	.	1A	.
.	.	.	.	4d
.	.	.	.	4e
.	.	.	.	4f
.	.	.	4G	[2e
.	.	.	4F	.
=71	=71	=71	=71	=71
1r	0r	0r	4G	2e]
.	.	.	4F	.
.	.	.	4E	2.d
.	.	.	4D	.
2r	.	.	1E	.
.	.	.	.	4c#Xi
2AA	.	.	.	2c#Xi
=72	=72	=72	=72	=72
4BB	0r	0r	1D	2d
4AA	.	.	.	.
4BB	.	.	.	1f
4C	.	.	.	.
2D	.	.	2r	.
4C	.	.	2E	4e
4BB	.	.	.	4d
=73	=73	=73	=73	=73
1AA	0r	0r	4F	1c
.	.	.	4E	.
.	.	.	4F	.
.	.	.	4G	.
1AA	.	.	2A	1c
.	.	.	4G	.
.	.	.	4F	.
=74	=74	=74	=74	=74
[0AAl	0r	0r	2E	0c
.	.	.	2F	.
.	.	.	2E	.
.	.	.	[2A	.
=75	=75	=75	=75	=75
0AA_	0r	0r	2A]	[0cl
.	.	.	4G	.
.	.	.	4F	.
.	.	.	4G	.
.	.	.	4F	.
.	.	.	4E	.
.	.	.	4D	.
=76	=76	=76	=76	=76
0AA_	0r	0r	1E	0c_
.	.	.	1E	.
=77	=77	=77	=77	=77
0AA]	0r	0r	0El	0c]
!!LO:LB:i:g=z
=78||	=78||	=78||	=78||	=78||
*>C	*>C	*>C	*>C	*>C
*clefF4	*clefF4	*clefGv2	*clefGv2	*clefGv2
*k[]	*k[]	*k[]	*k[]	*k[]
*M2/1	*M2/1	*M2/1	*M2/1	*M2/1
*met(C|)	*met(C|)	*met(C|)	*met(C|)	*met(C|)
!!section: Osanna
!!!OMD: Osanna
0r	0r	[0D	0r	1d
.	.	.	.	[1f
=79	=79	=79	=79	=79
1D	0r	0D_	0r	2f]
.	.	.	.	2e
[1F	.	.	.	2d
.	.	.	.	4c
.	.	.	.	4B
=80	=80	=80	=80	=80
2F]	1D	0D]	0r	0A
2E	.	.	.	.
2D	[1F	.	.	.
2C	.	.	.	.
=81	=81	=81	=81	=81
1.BB-Xi	2F]	[0F	0r	1.d
.	2E	.	.	.
.	2D	.	.	.
4AA	4C	.	.	2e
4GG	4BB	.	.	.
=82	=82	=82	=82	=82
[0FF	[0AA	0F_	1A	2.f
.	.	.	.	4g
.	.	.	[1c	[1a
=83	=83	=83	=83	=83
0FF]	0AA]	0F]	2c]	2a]
.	.	.	2B	2g
.	.	.	2A	2f
.	.	.	2G	4e
.	.	.	.	4d
=84	=84	=84	=84	=84
0r	0r	1D	1F	2f
.	.	.	.	4e
.	.	.	.	4d
.	.	[1F	[1A	2c
.	.	.	.	2d
=85	=85	=85	=85	=85
0r	0r	2F]	2A]	0A
.	.	2E	2G	.
.	.	2D	2F	.
.	.	4C	4E	.
.	.	4BB	4D	.
=86	=86	=86	=86	=86
1r	0r	1AA	1C	0A
[1F	.	[1A	[1c	.
=87	=87	=87	=87	=87
2F]	0r	2A]	1c]	1c
2E	.	2G	.	.
2D	.	2F	1B	1d
4C	.	4E	.	.
4BB	.	4D	.	.
=88	=88	=88	=88	=88
0AA	1.A	[0C	[0c	0e
.	2G	.	.	.
=89	=89	=89	=89	=89
[0AA	2F	0C]	0c]	1f
.	4E	.	.	.
.	4D	.	.	.
.	2.C	.	.	[1e
.	4D	.	.	.
=90	=90	=90	=90	=90
1AA]	1E	1.A	[0c	1e]
1FF	1AA	.	.	[1a
.	.	2G	.	.
=91	=91	=91	=91	=91
0FF	0C	2F	0c]	2a]
.	.	4E	.	2g
.	.	4D	.	.
.	.	2C	.	2f
.	.	2F	.	4e
.	.	.	.	4d
=92	=92	=92	=92	=92
1.AA	1.C	2E	1r	2.c
.	.	1A	.	.
.	.	.	.	4d
.	.	.	[1c	4e
.	.	.	.	4f
2BB	2D	4G	.	[2g
.	.	4F	.	.
=93	=93	=93	=93	=93
2C	2E	2E	2c]	2g]
2D	2D	2F	2B	1f
1C	1E	1G	1c	.
.	.	.	.	2e
=94	=94	=94	=94	=94
[0FF	1.C	[0F	2.A	1f
.	.	.	4B	.
.	.	.	2c	2r
.	2AA	.	[2d	[2f
=95	=95	=95	=95	=95
0FF]	0AA	0F]	2d]	2f]
.	.	.	4c	4e
.	.	.	4B	4d
.	.	.	2.A	2c
.	.	.	.	2d
.	.	.	4B	.
=96	=96	=96	=96	=96
[0FF	1r	[0A	1c	2A
.	.	.	.	2.c
.	2.AA	.	2A	.
.	.	.	.	4B
.	.	.	[2c	4A
.	4BB	.	.	4G
=97	=97	=97	=97	=97
0FF]	2C	0A]	4c]	1F
.	.	.	4B	.
.	2.D	.	4A	.
.	.	.	4G	.
.	.	.	2F	[1f
.	4E	.	.	.
.	2F	.	[2c	.
=98	=98	=98	=98	=98
0C	1.G	0r	2c]	2f]
.	.	.	4B	4e
.	.	.	4A	4d
.	.	.	2c	[1e
.	2E	.	4B	.
.	.	.	4A	.
=99	=99	=99	=99	=99
1.C	1E	0r	1G	1e]
.	[1G	.	2G	1e
4BB	.	.	2A	.
4AA	.	.	.	.
=100	=100	=100	=100	=100
2.GG	2G]	0r	2B	1g
.	4F	.	2c	.
4AA	4E	.	.	.
2BB	2D	.	2d	2f
2C	2E	.	4c	[2e
.	.	.	4B	.
=101	=101	=101	=101	=101
1D	1F	0r	0A	2e]
.	.	.	.	1d
1AA	1E	.	.	.
.	.	.	.	2c#Xi
=102	=102	=102	=102	=102
2r	2D	[0A	0r	1d
1D	1F	.	.	.
.	.	.	.	1r
2C	2E	.	.	.
=103	=103	=103	=103	=103
2D	2F	0A]	0r	0r
4C	4E	.	.	.
4BB	4D	.	.	.
1AA	2C	.	.	.
.	[2E	.	.	.
=104	=104	=104	=104	=104
1C	2E]	[0G	2r	0r
.	4D	.	1c	.
.	4C	.	.	.
1GG	1D	.	.	.
.	.	.	2B	.
=105	=105	=105	=105	=105
0C	2.C	0G_	2c	0r
.	.	.	4B	.
.	4D	.	4A	.
.	4E	.	2.G	.
.	4F	.	.	.
.	[2G	.	.	.
.	.	.	4A	.
=106	=106	=106	=106	=106
1GG	2G]	0G]	4B	1r
.	.	.	4c	.
.	4F	.	1d	.
.	4E	.	.	.
4GG	[1D	.	.	[1d
4AA	.	.	.	.
4BB	.	.	4c	.
4C	.	.	4B	.
=107	=107	=107	=107	=107
0D	1D]	[0F	[0A	1d]
.	[1D	.	.	1d
=108	=108	=108	=108	=108
1DD	2D]	0F]	0A]	0d
.	4C	.	.	.
.	4BB	.	.	.
4DD	2AA	.	.	.
4EE	.	.	.	.
4FF	2BB	.	.	.
4GG	.	.	.	.
=109	=109	=109	=109	=109
0AA	0C	[0E	0A	2c
.	.	.	.	1e
.	.	.	.	[2c
=110	=110	=110	=110	=110
0r	0r	0E_	1A	2c]
.	.	.	.	4B
.	.	.	.	4A
.	.	.	2G	2B
.	.	.	[2c	2A
=111	=111	=111	=111	=111
1AA	0C	0E]	2c]	0e
.	.	.	4B	.
.	.	.	4A	.
1C	.	.	2G	.
.	.	.	2A	.
=112	=112	=112	=112	=112
0GG	1BB	0D	4B	1g
.	.	.	4A	.
.	.	.	4G	.
.	.	.	4F	.
.	1BB	.	1G	1g
=113	=113	=113	=113	=113
0DD	0AA	1r	[0A	1f
.	.	1D	.	2f
.	.	.	.	[2d
=114	=114	=114	=114	=114
2r	2r	1D	0A]	4d]
.	.	.	.	4e
2DD	1AA	.	.	2f
2AA	.	2C	.	2e
2DD	[2AA	[2D	.	[2f
=115	=115	=115	=115	=115
2FF	2AA]	2D]	0r	2f]
2GG	2BB	2E	.	4e
.	.	.	.	4d
2AA	2C	2F	.	2c
2FF	2AA	[2D	.	2d
=116	=116	=116	=116	=116
1GG	1BB	2D]	0r	1B
.	.	2E	.	.
1FF	1AA	2F	.	2r
.	.	2D	.	2a
=117	=117	=117	=117	=117
2r	2r	1E	0r	2g
2GG	2BB	.	.	1e
2AA	2C	2F	.	.
2BB	2D	2G	.	2d
=118	=118	=118	=118	=118
1GG	1BB	1E	0r	1g
2AA	2C	2F	.	2f
2BB	2D	2G	.	2d
=119	=119	=119	=119	=119
2GG	2BB	2E	0r	2g
2AA	2C	1F	.	4f
.	.	.	.	4e
1BB	1D	.	.	1d
.	.	2G	.	.
=120	=120	=120	=120	=120
2AA	2E	2A	1.A	2c
1DD	1D	1F	.	1f
2EE	2BB	2G	2G	[2e
=121	=121	=121	=121	=121
1AA	2.C	2A	1c	2e]
.	.	2F	.	1a
.	4D	.	.	.
1EE	1E	1G	1B	.
.	.	.	.	2g
=122	=122	=122	=122	=122
2r	2r	[0E	1.A	2a
1AA	1C	.	.	4g
.	.	.	.	4f
.	.	.	.	1e
2GG	2BB	.	[2E	.
=123	=123	=123	=123	=123
2AA	2C	0E]	1E]	1a
4GG	4BB	.	.	.
4FF	4AA	.	.	.
1EE	2BB	.	1G	1g
.	2C	.	.	.
=124	=124	=124	=124	=124
1DD	1D	0A	2r	1f
.	.	.	2A	.
1AA	1C	.	1c	2e
.	.	.	.	[2f
=125	=125	=125	=125	=125
1BB	1D	1F	1B	2f]
.	.	.	.	1d
1GG	1BB	1G	1B	.
.	.	.	.	[2e
=126	=126	=126	=126	=126
0AA	1C	0E	0A	4e]
.	.	.	.	4d
.	.	.	.	4c#Xi
.	.	.	.	4B
.	1AA	.	.	1c#Xi
=127	=127	=127	=127	=127
[0DDl	2.D	[0Dl	2F	[0dl
.	.	.	2D	.
.	4C	.	.	.
.	1BB	.	2.F	.
.	.	.	4G	.
=128	=128	=128	=128	=128
0DD]	0AAl	0D]	0Al	0d]
!!LO:LB:i:g=z
=129||	=129||	=129||	=129||	=129||
*>D	*>D	*>D	*>D	*>D
*clefF4	*clefF4	*clefGv2	*clefGv2	*clefGv2
*k[]	*k[]	*k[]	*k[]	*k[]
*M2/1	*M2/1	*M2/1	*M2/1	*M2/1
*met(C2)	*met(C2)	*met(C2)	*met(C2)	*met(C2)
!!section: Benedictus qui venit
!!!OMD: Benedictus qui venit
0r	0r	0r	1A	0r
.	.	.	2.A	.
.	.	.	4G	.
=130	=130	=130	=130.	=130.
0r	0r	0r	4F	1d
.	.	.	4E	.
.	.	.	1G	.
.	.	.	.	2.d
.	.	.	4F	.
.	.	.	4E	4c
=131	=131	=131	=131	=131
0r	0r	0r	2D	4B
.	.	.	.	4A
.	.	.	2E	1c
.	.	.	2C	.
.	.	.	2F	4B
.	.	.	.	4A
=132	=132	=132	=132.	=132.
0r	0r	0r	1B-X	1G
.	.	.	1A	1F
=133	=133	=133	=133	=133
0r	0r	0r	2r	2r
.	.	.	2A	2a
.	.	.	2.c	2.a
.	.	.	4B	4g
=134	=134	=134	=134.	=134.
0r	0r	0r	4A	4f
.	.	.	4G	4e
.	.	.	2B	1g
.	.	.	2G	.
.	.	.	[2c	4f
.	.	.	.	4e
=135	=135	=135	=135	=135
0r	0r	0r	2c]	1d
.	.	.	2B	.
.	.	.	2c	2.c
.	.	.	4B	.
.	.	.	4A	4d
=136	=136	=136	=136.	=136.
0r	0r	0r	2G	2e
.	.	.	2F	1d
.	.	.	1G	.
.	.	.	.	4c
.	.	.	.	4B
=137	=137	=137	=137	=137
0r	0r	0r	0F	1A
.	.	.	.	2r
.	.	.	.	[2c
=138	=138	=138	=138.	=138.
0r	0r	0r	2r	2c]
.	.	.	4D	2.d
.	.	.	4E	.
.	.	.	4F	.
.	.	.	4G	4c
.	.	.	4A	2A
.	.	.	4F	.
=139	=139	=139	=139	=139
0r	0r	0r	2G	2B
.	.	.	2.A	4A
.	.	.	.	4B
.	.	.	.	4c
.	.	.	4B	4d
.	.	.	4c	4e
.	.	.	4A	4c
=140	=140	=140	=140.	=140.
0r	0r	0r	4B	2.d
.	.	.	4c	.
.	.	.	2.d	.
.	.	.	.	4e
.	.	.	.	4f
.	.	.	4c	4d
.	.	.	4B	4e
.	.	.	4A	4f
=141	=141	=141	=141	=141
0r	0r	0r	2G	2.g
.	.	.	2.c	.
.	.	.	.	4f
.	.	.	.	4e
.	.	.	4B	4d
.	.	.	4A	[2e
.	.	.	4G	.
=142	=142	=142	=142.	=142.
0r	0r	0r	4F	2e]
.	.	.	4E	.
.	.	.	1A	4d
.	.	.	.	4c
.	.	.	.	1B
.	.	.	2G#Xi	.
=143	=143	=143	=143	=143
0r	0r	0r	0Al	0Al
!!LO:LB:i:g=z
=144||	=144||	=144||	=144||	=144||
*>E	*>E	*>E	*>E	*>E
*clefF4	*clefF4	*clefGv2	*clefGv2	*clefGv2
*k[]	*k[]	*k[]	*k[]	*k[]
*M2/1	*M2/1	*M2/1	*M2/1	*M2/1
*met(C2)	*met(C2)	*met(C2)	*met(C2)	*met(C2)
!!section: In nomine Domini
!!!OMD: In nomine Domini
1AA	1r	0r	0r	0r
2.AA	1A	.	.	.
4BB	.	.	.	.
=145.	=145.	=145	=145	=145
2C	2.A	0r	0r	0r
2.D	.	.	.	.
.	4G	.	.	.
.	4F	.	.	.
4C	4E	.	.	.
4BB	[2G	.	.	.
4AA	.	.	.	.
=146	=146	=146	=146	=146
2GG	2G]	0r	0r	0r
1C	4F	.	.	.
.	4E	.	.	.
.	1D	.	.	.
2BB	.	.	.	.
=147.	=147.	=147	=147	=147
1C	2r	0r	0r	0r
.	2C	.	.	.
2r	2D	.	.	.
[2C	[2E	.	.	.
=148	=148	=148	=148	=148
2C]	2E]	0r	0r	0r
4BB	4D	.	.	.
4AA	4C	.	.	.
2BB	2D	.	.	.
[2C	2E	.	.	.
=149.	=149.	=149	=149	=149
4C]	2AA	0r	0r	0r
4D	.	.	.	.
2E	1E	.	.	.
2AA	.	.	.	.
[2D	[2F	.	.	.
=150	=150	=150	=150	=150
4D]	4F]	0r	0r	0r
4E	4G	.	.	.
2.F	2A	.	.	.
.	1D	.	.	.
4E	.	.	.	.
4D	.	.	.	.
4C	.	.	.	.
=151.	=151.	=151	=151	=151
4D	2r	0r	0r	0r
4C	.	.	.	.
4BB	2.G	.	.	.
4AA	.	.	.	.
1GG	.	.	.	.
.	4A	.	.	.
.	[2B	.	.	.
=152	=152	=152	=152	=152
1GG	4B]	0r	0r	0r
.	4A	.	.	.
.	4G	.	.	.
.	4F	.	.	.
2r	4G	.	.	.
.	4F	.	.	.
2GG	4E	.	.	.
.	4D	.	.	.
=153.	=153.	=153	=153	=153
2AA	2C	0r	0r	0r
2C	2E	.	.	.
2BB	2D	.	.	.
2AA	[2C	.	.	.
=154	=154	=154	=154	=154
2C	4C]	0r	0r	0r
.	4D	.	.	.
4BB	4E	.	.	.
4AA	4F	.	.	.
1GG	2.G	.	.	.
.	4F	.	.	.
=155.	=155.	=155	=155	=155
2r	2D	0r	0r	0r
2D	2F	.	.	.
2C	2E	.	.	.
2BB	[2D	.	.	.
=156	=156	=156	=156	=156
2D	4D]	0r	0r	0r
.	4E	.	.	.
4C	4F	.	.	.
4BB	4G	.	.	.
2AA	2A	.	.	.
2D	4G	.	.	.
.	4F	.	.	.
=157.	=157.	=157	=157	=157
2C	2E	0r	0r	0r
2BB	2G	.	.	.
2D	2F	.	.	.
4C	2E	.	.	.
4BB	.	.	.	.
=158	=158	=158	=158	=158
2AA	2A	0r	0r	0r
2AA	4G	.	.	.
.	4F	.	.	.
4GG	4E	.	.	.
4FF	4D	.	.	.
4EE	[2F	.	.	.
4DD	.	.	.	.
=159.	=159.	=159	=159	=159
2FF	4F]	0r	0r	0r
.	4E	.	.	.
2GG	1D	.	.	.
1EE	.	.	.	.
.	2C#Xi	.	.	.
=160	=160	=160	=160	=160
0DDl	0Dl	0r	0r	0r
!!LO:TX:b:rj:t=Osanna ut supra
=||	=||	=||	=||	=||
*-	*-	*-	*-	*-
!!!RDF**kern: l=long note in original notation
!!!system-decoration: s1,s2,s3,s4,s5
!!!RDF**kern: i = editorial accidental
!!!RDF**kern: V = start of tuplet marker
!!!RDF**kern: Z = end of tuplet marker
!!!ENC:	Chris Gage 01-03-2013
!!!END:	2015/03/06/
!!!EED:	Jesse Rodin
!!!EEV:	2022/05/20/
!!!ONB:	Translated from MusicXML and edited on 2022/05/20/ by Craig Sapp
!!muse2ps: T^@{OPR}^u^@{ONM}{. }@{OTL}^C^@{COM}^i2I150v85,85,85,85,150Z18c73
